!!!COM: Gaspar van Weerbeke
!!!CDT: ~1450-~1517
!!!OPR: Missa Princesse d'amourettes
!!!OTL: Gloria
!!!OMV: 2
!!!AGN: Mass
!!!SCT: Gas0103b
!!!SCA: Gas0103b
!!!voices: 4
**kern	**text	**kern	**text	**kern	**text	**kern	**text
*part4	*part4	*part3	*part3	*part2	*part2	*part1	*part1
*staff4	*staff4	*staff3	*staff3	*staff2	*staff2	*staff1	*staff1
*I"Bassus	*	*I"Tenor	*	*I"Altus	*	*I"Superius	*
*I'B	*	*I'T	*	*I'A	*	*I'S	*
*clefF4	*	*clefGv2	*	*clefGv2	*	*clefG2	*
*k[]	*	*k[]	*	*k[]	*	*k[]	*
*M3/2	*	*M3/2	*	*M3/2	*	*M3/2	*
*met(O)	*	*met(O)	*	*met(O)	*	*met(O)	*
=1	=1	=1	=1	=1	=1	=1	=1
1.r	.	1.r	.	2G	Et	1g	Et
.	.	.	.	4G	in	.	.
.	.	.	.	4.c	ter-	.	.
.	.	.	.	.	.	2g	in
.	.	.	.	8d	.	.	.
.	.	.	.	[4e	-ra	.	.
=2	=2	=2	=2	=2	=2	=2	=2
1.r	.	1.r	.	8e]L	.	2.cc	ter-
.	.	.	.	8d	.	.	.
.	.	.	.	8c	.	.	.
.	.	.	.	8BJ	.	.	.
.	.	.	.	2A	pax	.	.
.	.	.	.	.	.	4cc	-ra
*	*	*	*	*	*	*lig	*
.	.	.	.	4r	.	2b	pax
.	.	.	.	[4G	ho-	.	.
=3	=3	=3	=3	=3	=3	=3	=3
1.r	.	1.r	.	4G]	.	2a	.
*	*	*	*	*	*	*Xlig	*
.	.	.	.	4F	.	.	.
*	*	*	*	*lig	*	*	*
.	.	.	.	2G	-mi-	4r	.
.	.	.	.	.	.	2g	ho-
.	.	.	.	2A	.	.	.
*	*	*	*	*Xlig	*	*	*
.	.	.	.	.	.	4f	.
=4	=4	=4	=4	=4	=4	=4	=4
1.r	.	1.r	.	4.G	-ni-	4e	-mi-
.	.	.	.	.	.	4.d	-ni-
.	.	.	.	8A	.	.	.
.	.	.	.	8BL	.	.	.
.	.	.	.	8cJ	.	8c	.
.	.	.	.	4d	.	4B	.
.	.	.	.	4e	.	2A	-bus
.	.	.	.	4f	.	.	.
!!LO:LB:g=original
=5	=5	=5	=5	=5	=5	=5	=5
1.r	.	1.r	.	4g	-bus	4r	.
.	.	.	.	2f	bo-	2a	bo-
.	.	.	.	2d	.	4f	.
.	.	.	.	.	.	2e	-ne
.	.	.	.	4c	.	.	.
=6	=6	=6	=6	=6	=6	=6	=6
1.r	.	1.r	.	4.d	-ne	4r	.
.	.	.	.	.	.	2dd	vo-
.	.	.	.	8e	.	.	.
.	.	.	.	4f	.	.	.
.	.	.	.	2g	vo-	4b	.
.	.	.	.	.	.	2a	.
.	.	.	.	4f	.	.	.
=7	=7	=7	=7	=7	=7	=7	=7
1.r	.	1.r	.	4g	.	2b	-lun-
.	.	.	.	4G	-lun-	.	.
.	.	.	.	4.c	-ta-	4g	.
.	.	.	.	.	.	4.cc	-ta-
.	.	.	.	8B	.	.	.
.	.	.	.	8AL	.	.	.
.	.	.	.	8GJ	.	8bL	.
*	*	*	*	*lig	*	*	*
.	.	.	.	[4c	.	8a	.
.	.	.	.	.	.	8gJ	.
=8	=8	=8	=8	=8	=8	=8	=8
1.r	.	1.r	.	4c]	.	2a	.
.	.	.	.	2d	.	.	.
*	*	*	*	*Xlig	*	*	*
.	.	.	.	.	.	2b	.
.	.	.	.	2e	.	.	.
.	.	.	.	.	.	4g	.
.	.	.	.	4c	.	4e	.
!!LO:LB:g=original
=9	=9	=9	=9	=9	=9	=9	=9
4GG	Vo-	1.r	.	4B	.	4d	.
4.C	-lun-	.	.	2G	.	4.e	.
8BB	.	.	.	.	.	8f	.
4GG	.	.	.	4B	.	2g	.
2D	-ta-	.	.	2A	.	.	.
.	.	.	.	.	.	4f#i	.
=10	=10	=10	=10	=10	=10	=10	=10
2.E	.	1.r	.	1G	-tis.	1g	-tis.
8DL	.	.	.	.	.	.	.
8CJ	.	.	.	.	.	.	.
2BB	.	.	.	2d	Lau-	2r	.
=11	=11	=11	=11	=11	=11	=11	=11
*	*	*lig	*	*	*	*	*
2C	-tis.	[1.G	Lau-	2e	-da-	2g	Lau-
4r	.	.	.	2c	-mus,	4.e	-da-
4C	Lau-	.	.	.	.	.	.
.	.	.	.	.	.	8c	.
4BB	.	.	.	2r	.	4d	.
4C	.	.	.	.	.	4e	.
=12	=12	=12	=12	=12	=12	=12	=12
*	*	*	*	*	*edit	*	*
2GG	-da-	1.G]	.	2d	lau-	4d	.
.	.	.	.	.	.	2g	.
4.C	-mus	.	.	4e	-da-	.	.
.	.	.	.	4c	.	4.e	-mus
8D	.	.	.	.	.	.	.
2E	.	.	.	2B	-mus	.	.
.	.	.	.	.	.	8f	.
.	.	.	.	.	.	4g	.
!!LO:PB:g=original
=13	=13	=13	=13	=13	=13	=13	=13
2F	te.	[1.c	.	2A	te.	4.a	te.
.	.	.	.	.	.	8b	.
*	*	*	*	*	*Xedit	*	*
4r	.	.	.	8AL	Be-	2cc	Be-
.	.	.	.	8B	.	.	.
4F	Be-	.	.	8c	.	.	.
.	.	.	.	8dJ	.	.	.
4E	.	.	.	4e	.	4g	-ne-
4F	.	.	.	4A	-ne-	4a	.
=14	=14	=14	=14	=14	=14	=14	=14
4C	-ne-	1.c]	.	4e	-di-	4g	.
4.F	-di-	.	.	4.f	.	4.a	-di-
8EL	.	.	.	8g	.	8g	.
8F	.	.	.	4a	.	2cc	-ci-
8GJ	.	.	.	.	.	.	.
2A	-ci-	.	.	4e	-ci-	.	.
.	.	.	.	4f	.	4a	.
=15	=15	=15	=15	=15	=15	=15	=15
2G	-mus	[1.d	.	2g	-mus	2b	-mus
2D	te.	.	.	2f	te.	2a	te.
*	*edit	*	*	*	*	*	*
4G	Ad-	.	.	2r	.	4r	.
4F	-o-	.	.	.	.	4a	Ad-
=16	=16	=16	=16	=16	=16	=16	=16
4.D	-ra-	1.d]	.	4.f	Ad-	4b	-o-
*	*	*Xlig	*	*	*	*	*
.	.	.	.	.	.	4.dd	-ra-
8C	.	.	.	8e	-o-	.	.
8BBL	.	.	.	4.d	-ra-	.	.
8AAJ	.	.	.	.	.	8ccL	.
2.GG	-mus	.	.	.	.	8b	.
.	.	.	.	8c	.	8aJ	.
.	.	.	.	8BL	.	2b	-mus
.	.	.	.	8AJ	.	.	.
.	.	.	.	4G	-mus,	.	.
!!LO:LB:g=original
=17	=17	=17	=17	=17	=17	=17	=17
*	*	*	*	*	*	*	*edit
1C	te,	1.c	-da-	2r	.	1cc	te,
*	*	*	*	*	*edit	*	*
.	.	.	.	2.g	ad-	.	.
*	*Xedit	*	*	*	*	*	*
4E	ad-	.	.	.	.	4g	ad-
4F	-o-	.	.	4f	-o-	4a	-o-
=18	=18	=18	=18	=18	=18	=18	=18
2G	-ra-	4B	.	4.d	-ra-	2.b	-ra-
.	.	2d	.	.	.	.	.
.	.	.	.	8e	.	.	.
4D	.	.	.	2f	-mus	.	.
4F	.	4c	.	.	.	2a	-mus
*	*	*	*	*	*Xedit	*	*
2G	.	2B-j	-mus	2d	te.	.	.
.	.	.	.	.	.	4g	.
=19	=19	=19	=19	=19	=19	=19	=19
*	*	*	*	*	*	*	*Xedit
4.D	.	1A	te.	4r	.	2a	te.
.	.	.	.	4d	Glo-	.	.
16CLL	.	.	.	.	.	.	.
16BBJJ	.	.	.	.	.	.	.
2AA	-mus	.	.	4.e	.	2r	.
.	.	.	.	8f	.	.	.
2GG	te.	2r	.	4.g	-ri-	2b	Glo-
.	.	.	.	8f	.	.	.
=20	=20	=20	=20	=20	=20	=20	=20
2C	.	1.r	.	8eL	.	2.g	-ri-
.	.	.	.	8dJ	.	.	.
.	.	.	.	2e	-fi-	.	.
4r	.	.	.	.	.	.	.
4AA	Glo-	.	.	4f	.	4a	-fi-
4C	-ri-	.	.	4e	.	4g	.
*	*edit	*	*	*	*	*	*
4D	-fi-	.	.	[4d	.	4f	.
!!LO:LB:g=original
=21	=21	=21	=21	=21	=21	=21	=21
2AA	-ca-	2r	.	4d]	.	2e	-ca-
.	.	.	.	4c	.	.	.
*	*	*	*edit	*	*	*	*
2r	.	2B	Glo-	2d	-ca-	4d	.
.	.	.	.	.	.	4.g	.
4r	.	[2G	-ri-	4B	.	.	.
.	.	.	.	.	.	8fL	.
[4C	.	.	.	4G	.	8e	.
.	.	.	.	.	.	8dJ	.
=22	=22	=22	=22	=22	=22	=22	=22
4C]	.	4G]	.	2.c	.	4e	.
4AA	.	4A	-fi-	.	.	4f	.
4C	.	4G	-ca-	.	.	4e	.
4D	-mus	4F	.	2.A	.	2d	.
2AA	te.	2E	-mus	.	.	.	.
.	.	.	.	.	.	4c#i	-mus
=23	=23	=23	=23	=23	=23	=23	=23
1.r	.	1.D	te.	4F	.	2.d	te.
*	*	*	*	*lig	*	*	*
.	.	.	.	2A	.	.	.
.	.	.	.	2G	.	8cL	.
*	*	*	*	*Xlig	*	*	*
.	.	.	.	.	.	8BJ	.
.	.	.	.	.	.	2A	.
.	.	.	.	4F#i	-mus	.	.
=24	=24	=24	=24	=24	=24	=24	=24
*	*Xedit	*	*	*	*	*	*
2.GG	Gra-	1.r	.	2G	te.	1.r	.
.	.	.	.	2B	Gra-	.	.
4GG	-ti-	.	.	.	.	.	.
4GG	-as	.	.	4B	-ti-	.	.
[4G	a-	.	.	[4B	-as	.	.
!!LO:LB:g=original
=25	=25	=25	=25	=25	=25	=25	=25
4G]	.	1.r	.	8BL]	.	1.r	.
.	.	.	.	8GJ	.	.	.
2D	.	.	.	4A	.	.	.
.	.	.	.	4B	a-	.	.
4F	-gi-	.	.	8A	.	.	.
.	.	.	.	4d	-gi-	.	.
2E	.	.	.	.	.	.	.
.	.	.	.	8B	.	.	.
.	.	.	.	4c	.	.	.
=26	=26	=26	=26	=26	=26	=26	=26
*	*	*lig	*Xedit	*	*	*	*
1D	-mus,	1.A	Gra-	2d	-mus,	2.f	Gra-
.	.	.	.	4r	.	.	.
*	*	*	*	*	*edit	*	*
.	.	.	.	4d	a-	4f	-ti-
2r	.	.	.	4.c	.	2f	-as
.	.	.	.	8B	.	.	.
=27	=27	=27	=27	=27	=27	=27	=27
*	*edit	*	*	*	*	*	*
4.D	a-	1.d	.	2.A	-gi-	4.f	a-
*	*	*Xlig	*	*	*	*	*
8E	.	.	.	.	.	8g	.
4F	.	.	.	.	.	4a	.
4G	-gi-	.	.	4.d	-mus	4b	-gi-
4F	.	.	.	.	.	4a	.
.	.	.	.	8c	.	.	.
4G	.	.	.	4B	.	4b	.
=28	=28	=28	=28	=28	=28	=28	=28
*	*	*	*	*	*Xedit	*	*
4A	-mus	2c	-ti-	2A	ti-	4cc	-mus
*	*Xedit	*	*	*	*	*	*
4F	ti-	.	.	.	.	4a	.
2G	-bi	1B	-as	1d	-bi	8bL	ti-
.	.	.	.	.	.	8a	.
.	.	.	.	.	.	8g	.
.	.	.	.	.	.	8fJ	.
4r	.	.	.	.	.	2g	-bi
4G	pro-	.	.	.	.	.	.
!!LO:PB:g=original
=29	=29	=29	=29	=29	=29	=29	=29
1D	-pter	4A	a-	4.f	pro-	2r	.
.	.	4B	.	.	.	.	.
.	.	.	.	8e	.	.	.
.	.	4A	.	4d	-pter	4a	pro-
*	*	*	*	*	*edit	*	*
.	.	4d	-gi-	4D	ma-	4b	.
2r	.	4c	.	4F	.	4a	-pter
.	.	4B	.	4G	.	4dd	ma-
=30	=30	=30	=30	=30	=30	=30	=30
2.F	ma-	1A	-mus	4.A	.	4.cc	.
.	.	.	.	8B	.	8b	.
.	.	.	.	4c	-gnam	2a	-gnam
2.D	-gnam	.	.	4d	.	.	.
.	.	2A	ti-	2r	.	4r	.
.	.	.	.	.	.	4f	glo-
=31	=31	=31	=31	=31	=31	=31	=31
2GG	glo-	4G	.	2.g	glo-	4e	.
.	.	2B	.	.	.	2d	.
4G	-ri-	.	.	.	.	.	.
4C	.	4c	.	4e	-ri-	4e	-ri-
4.D	-am	2A	-bi.	4d	.	4f	.
.	.	.	.	[4f	-am	[4a	-am
8E	.	.	.	.	.	.	.
=32	=32	=32	=32	=32	=32	=32	=32
2F	.	1.r	.	8f]L	.	8a]L	.
.	.	.	.	8e	.	8g	.
.	.	.	.	8d	.	8f	.
.	.	.	.	8cJ	.	8eJ	.
4G	tu-	.	.	4B	tu-	4d	tu-
4E	.	.	.	4G	.	2g	.
2D	.	.	.	2A	.	.	.
.	.	.	.	.	.	4f#i	.
!!LO:LB:g=original
=33	=33	=33	=33	=33	=33	=33	=33
*	*	*lig	*edit	*	*	*	*
1.GG	-am.	[1.G	Do-	2G	-am.	1g	-am.
.	.	.	.	4r	.	.	.
*	*	*	*	*	*Xedit	*	*
.	.	.	.	4d	Do-	.	.
.	.	.	.	4d	-mi-	4r	.
.	.	.	.	4d	-ne	4g	Do-
=34	=34	=34	=34	=34	=34	=34	=34
2r	.	1.G]	.	4.B	De-	4g	-mi-
.	.	.	.	.	.	4g	-ne
.	.	.	.	8G	.	.	.
2.C	Do-	.	.	2G	-us,	4.e	De-
.	.	.	.	.	.	8d	.
.	.	.	.	4r	.	2c	-us,
4C	-mi-	.	.	[4g	Rex	.	.
=35	=35	=35	=35	=35	=35	=35	=35
2C	-ne	[1.c	.	4g]	.	2e	Rex
.	.	.	.	4g	ce-	.	.
4r	.	.	.	4.g	-le-	4.e	ce-
2C	De-	.	.	.	.	.	.
.	.	.	.	8f	.	8f	.
.	.	.	.	8eL	.	4g	.
.	.	.	.	8dJ	.	.	.
[4F	-us,	.	.	4c	.	[4a	-le-
=36	=36	=36	=36	=36	=36	=36	=36
4F]	.	1c]	.	4A	.	4a]	.
*	*	*Xlig	*	*	*	*	*
4E	.	.	.	4.e	.	2g	.
2C	Rex	.	.	.	.	.	.
.	.	.	.	8f	.	.	.
.	.	.	.	2.g	.	2cc	.
2G	ce-	2d	-mi-	.	.	.	.
.	.	.	.	.	.	4b	.
!!LO:LB:g=original
=37	=37	=37	=37	=37	=37	=37	=37
*	*	*col	*	*	*	*	*
*	*	*lig	*	*	*	*	*
2.A	-le-	[1.c	-ne	4e	-stis,	2cc	-stis,
.	.	.	.	4c	De-	.	.
.	.	.	.	4.e	.	4r	.
8GL	.	.	.	.	.	4c	De-
8FJ	.	.	.	8f	.	.	.
4E	.	.	.	2g	-us	4.e	.
4C	.	.	.	.	.	.	.
.	.	.	.	.	.	8f	.
=38	=38	=38	=38	=38	=38	=38	=38
4.E	.	2c]	.	4r	.	4.g	-us
.	.	.	.	4G	Pa-	.	.
8F	.	.	.	.	.	8f	.
1G	.	1B	.	4.B	.	2d	.
*	*	*Xcol	*	*	*	*	*
*	*	*Xlig	*	*	*	*	*
.	.	.	.	8c	.	.	.
.	.	.	.	2d	.	4r	.
.	.	.	.	.	.	4g	Pa-
=39	=39	=39	=39	=39	=39	=39	=39
2D	-stis,	[1.A	De-	4d	.	4f	.
.	.	.	.	2f	.	2a	.
2r	.	.	.	.	.	.	.
.	.	.	.	2d	.	8gL	.
.	.	.	.	.	.	8fJ	.
2AA	De-	.	.	.	.	2e	.
.	.	.	.	4c	.	.	.
=40	=40	=40	=40	=40	=40	=40	=40
2D	-us	1.A_	.	4d	-ter	2d	-ter
.	.	.	.	4f	.	.	.
4C	Pa-	.	.	4e	.	4r	.
4D	-ter	.	.	4d	.	2dd	om-
2AA	om-	.	.	2e	om-	.	.
.	.	.	.	.	.	4cc	.
!!LO:LB:g=original
=41	=41	=41	=41	=41	=41	=41	=41
1D	-ni-	1.A]	.	4.d	-ni-	2dd	-ni-
.	.	.	.	8e	.	.	.
.	.	.	.	4f	-pot-	4dd	-pot-
.	.	.	.	2g	.	8ccL	.
.	.	.	.	.	.	8bJ	.
2D	-pot-	.	.	.	.	2a	-ens.
.	.	.	.	4f#i	.	.	.
=42	=42	=42	=42	=42	=42	=42	=42
*	*	*lig	*	*	*	*	*
*	*	*col	*	*	*	*	*
1.GG	-ens.	1B	-us,	2g	-ens.	4r	.
.	.	.	.	.	.	4d	Do-
.	.	.	.	4r	.	4d	-mi-
.	.	.	.	4d	Do-	4d	-ne
.	.	[2G	.	4d	-mi-	4.g	Fi-
.	.	.	.	4d	-ne	.	.
.	.	.	.	.	.	8a	.
=43	=43	=43	=43	=43	=43	=43	=43
1.r	.	2G]	.	4.g	Fi-	4b	-li
*	*	*Xlig	*	*	*	*	*
.	.	.	.	.	.	4b	u-
.	.	.	.	8f	.	.	.
.	.	1A	Rex	8eL	.	4.cc	-ni-
*	*	*Xcol	*	*	*	*	*
.	.	.	.	8dJ	.	.	.
.	.	.	.	4c	-li	.	.
.	.	.	.	.	.	8b	.
.	.	.	.	2r	.	8aL	.
.	.	.	.	.	.	8gJ	.
.	.	.	.	.	.	4f	-ge-
=44	=44	=44	=44	=44	=44	=44	=44
*	*edit	*	*	*	*	*	*
2.C	Do-	2.G	ce-	4r	.	8e	.
.	.	.	.	.	.	4g	.
.	.	.	.	4c	u-	.	.
.	.	.	.	.	.	8f	.
.	.	.	.	4e	-ni-	8eL	.
.	.	.	.	.	.	8dJ	.
4D	-mi-	4F	.	4f	.	2d	.
4E	.	2E	-le-	4.g	-ge-	.	.
4G	-ne	.	.	.	.	4c#i	-ni-
.	.	.	.	8e	.	.	.
!!LO:PB:g=original
=45	=45	=45	=45	=45	=45	=45	=45
2.A	Fi-	1D	-stis.	2f	-ni-	2d	-te
.	.	.	.	2f	-te	2r	.
4F	-li	.	.	.	.	.	.
4G	u-	2r	.	2e	Je-	4r	.
4E	-ni-	.	.	.	.	4g	Je-
=46	=46	=46	=46	=46	=46	=46	=46
4F	-ge-	1.r	.	4c	-su	2a	-su
4D	-ni-	.	.	2d	Chri-	.	.
4BB	-te	.	.	.	.	4b	Chri-
4C	Je-	.	.	8cL	.	4g	.
.	.	.	.	8BJ	.	.	.
2D	-su	.	.	2A	.	2f	.
=47	=47	=47	=47	=47	=47	=47	=47
4BB	Chri-	1.r	.	4G	.	4g	.
4C	.	.	.	2A	.	4e	.
4D	.	.	.	.	.	4f	.
4BB	.	.	.	2G	.	4d	.
2AA	.	.	.	.	.	2c	-ste.
.	.	.	.	4F#i	.	.	.
=48	=48	=48	=48	=48	=48	=48	=48
2GG	-ste.	2r	.	2G	-ste.	4r	.
.	.	.	.	.	.	4B	Do-
*	*	*	*Xedit	*	*	*	*
4r	.	2A	Do-	2r	.	4c	.
*	*Xedit	*	*	*	*	*	*
4F	Do-	.	.	.	.	4A	-mi-
4G	.	2B	-mi-	4r	.	2G	-ne
4E	.	.	.	4g	Do-	.	.
!!LO:LB:g=original
=49	=49	=49	=49	=49	=49	=49	=49
4F	-mi-	4A	-ne	4f	-mi-	4r	.
4G	.	2G	De-	4.d	.	4g	De-
2D	-ne	.	.	.	.	2a	.
.	.	.	.	8e	.	.	.
.	.	4F	.	4f	-ne	.	.
4r	.	2G	-us,	4.d	De-	2b	.
4GG	De-	.	.	.	.	.	.
.	.	.	.	8B	.	.	.
=50	=50	=50	=50	=50	=50	=50	=50
4F	-us,	1.r	.	8cL	.	4a	.
.	.	.	.	8dJ	.	.	.
4G	.	.	.	4B	.	2g	-us,
2D	A-	.	.	2A	.	.	.
.	.	.	.	.	.	4f	.
4.E	.	.	.	2G	-us,	4.g	A-
8D	.	.	.	.	.	8f	.
=51	=51	=51	=51	=51	=51	=51	=51
8CL	.	2r	.	4r	.	8eL	.
8BBJ	.	.	.	.	.	8dJ	.
4AA	.	.	.	4A	A-	4c	.
4.GG	.	2r	.	4.B	.	4.d	.
8AA	.	.	.	8A	.	8c	.
8BBL	.	4r	.	4G	.	8BL	-gnus
8CJ	.	.	.	.	.	8GJ	.
4AA	.	4A	Fi-	4F	.	4c	De-
=52	=52	=52	=52	=52	=52	=52	=52
2.GG	-gnus	4.B	-li-	4.G	.	4B	.
.	.	.	.	.	.	4G	-i,
.	.	8A	.	8A	.	.	.
.	.	4G	-us	8BL	.	4r	.
.	.	.	.	8cJ	.	.	.
4D	De-	4F	.	4A	.	4a	Fi-
4BB	.	4.G	Pa-	4.G	.	4.b	-li-
4GG	-i,	.	.	.	.	.	.
.	.	8A	.	8F	.	8a	.
!!LO:LB:g=original
=53	=53	=53	=53	=53	=53	=53	=53
2r	.	8BL	.	8EL	-gnus	4g	-us
.	.	8cJ	.	8CJ	.	.	.
.	.	4A	.	4D	.	4f	.
*	*	*	*	*	*	*	*edit
2r	.	2G	.	4r	.	4.g	Pa-
*	*	*	*	*	*edit	*	*
.	.	.	.	4.d	De-	.	.
.	.	.	.	.	.	8a	.
4r	.	2r	.	.	.	8bL	.
.	.	.	.	8e	.	8ccJ	.
4D	Fi-	.	.	4f#i	.	4a	.
=54	=54	=54	=54	=54	=54	=54	=54
4.E	-li-	[1.Gl;	-tris.	2g	-i,	1.g	-tris,
8D	.	.	.	.	.	.	.
4C	-us	.	.	4r	.	.	.
4BB	.	.	.	4d	Fi-	.	.
[2C	Pa-	.	.	4.e	-li-	.	.
.	.	.	.	8d	.	.	.
=55	=55	=55	=55	=55	=55	=55	=55
4C]	.	1.G_	.	4c	-us	4r	.
4GG	.	.	.	4B	.	4d	fi-
4.C	.	.	.	2c	Pa-	4.e	-li-
8D	.	.	.	.	.	8d	.
8EL	.	.	.	4G	.	4c	-us
8FJ	.	.	.	.	.	.	.
4G	.	.	.	[4E	.	4B	.
=56	=56	=56	=56	=56	=56	=56	=56
*	*	*	*	*	*	*	*Xedit
2C	.	1.G]	.	8E]L	.	4.c	Pa-
.	.	.	.	8CJ	.	.	.
.	.	.	.	4E	.	.	.
.	.	.	.	.	.	8d	.
1GGl;	-tris.	.	.	1Dl;	-tris.	1Bl;	-tris.
!!LO:LB:g=original
=57	=57	=57	=57	=57	=57	=57	=57
*M2/2	*	*M2/2	*	*M2/2	*	*M2/2	*
*met(C|)	*	*met(C|)	*	*met(C|)	*	*met(C|)	*
*	*	*	*	*	*Xedit	*	*
1GG	Qui	1r	.	[1G	Qui	1r	.
=58	=58	=58	=58	=58	=58	=58	=58
2GG	tol-	1r	.	1G_	.	1r	.
2GG	-lis	.	.	.	.	.	.
=59	=59	=59	=59	=59	=59	=59	=59
*	*edit	*	*	*	*	*	*
2C	pec-	1r	.	1G_	.	1g	Qui
4BB	.	.	.	.	.	.	.
[4C	-ca-	.	.	.	.	.	.
=60	=60	=60	=60	=60	=60	=60	=60
4C]	.	1r	.	1G]	.	4.g	tol-
8BBL	.	.	.	.	.	.	.
8AAJ	.	.	.	.	.	8e	.
2BB	-ta,	.	.	.	.	2d	-lis
=61	=61	=61	=61	=61	=61	=61	=61
*	*	*	*	*	*	*	*edit
1r	.	1r	.	[1G	tol-	2e	pec-
.	.	.	.	.	.	4d	.
.	.	.	.	.	.	[4e	-ca-
=62	=62	=62	=62	=62	=62	=62	=62
1r	.	1r	.	1G_	.	4e]	.
.	.	.	.	.	.	8dL	.
.	.	.	.	.	.	8cJ	.
.	.	.	.	.	.	2B	-ta,
=63	=63	=63	=63	=63	=63	=63	=63
*	*Xedit	*	*	*	*	*	*
2C	pec-	1r	.	1G_	.	1r	.
4BB	.	.	.	.	.	.	.
[4C	-ca-	.	.	.	.	.	.
!!LO:PB:g=original
=64	=64	=64	=64	=64	=64	=64	=64
4C]	.	1r	.	1G]	.	1r	.
8BBL	.	.	.	.	.	.	.
8AAJ	.	.	.	.	.	.	.
2BB	.	.	.	.	.	.	.
=65	=65	=65	=65	=65	=65	=65	=65
*	*	*	*	*	*	*	*Xedit
2AA	-ta	1r	.	1c	-lis	2a	pec-
2r	.	.	.	.	.	4g	.
.	.	.	.	.	.	[4a	-ca-
=66	=66	=66	=66	=66	=66	=66	=66
1r	.	1r	.	2c	pec-	4a]	.
.	.	.	.	.	.	8gL	.
.	.	.	.	.	.	8fJ	.
.	.	.	.	2c	-ca-	2e	-ta
=67	=67	=67	=67	=67	=67	=67	=67
4.D	mun-	1r	.	2.d	.	1r	.
8E	.	.	.	.	.	.	.
8FL	.	.	.	.	.	.	.
8GJ	.	.	.	.	.	.	.
[4A	.	.	.	4c	.	.	.
=68	=68	=68	=68	=68	=68	=68	=68
4A]	.	1r	.	2B	.	1r	.
2G	.	.	.	.	.	.	.
.	.	.	.	2A	.	.	.
4F#j	.	.	.	.	.	.	.
=69	=69	=69	=69	=69	=69	=69	=69
2G	-di,	1r	.	2B	-ta	4.g	mun-
.	.	.	.	.	.	8a	.
4r	.	.	.	2G	mun-	8bL	.
.	.	.	.	.	.	8ccJ	.
*	*edit	*	*	*	*	*	*
[4G	mun-	.	.	.	.	[4dd	.
=70	=70	=70	=70	=70	=70	=70	=70
4G]	.	1r	.	4B	.	4dd]	.
4E	.	.	.	4c	.	2cc	.
4D	.	.	.	2d	.	.	.
4G	.	.	.	.	.	4b	.
!!LO:LB:g=original
=71	=71	=71	=71	=71	=71	=71	=71
2C	-di,	1r	.	[1c	-di,	1cc	-di,
2r	.	.	.	.	.	.	.
=72	=72	=72	=72	=72	=72	=72	=72
*	*Xedit	*	*	*	*	*	*
2E	mi-	1r	.	1c]	.	2cc	mi-
2F	-se-	.	.	.	.	2cc	-se-
=73	=73	=73	=73	=73	=73	=73	=73
2G	-re-	1r	.	1r	.	2b	-re-
4F	.	.	.	.	.	4a	.
[4A	.	.	.	.	.	[4cc	.
=74	=74	=74	=74	=74	=74	=74	=74
8A]L	.	1r	.	2c	mi-	8cc]L	.
8G	.	.	.	.	.	8b	.
8F	.	.	.	.	.	8a	.
8EJ	.	.	.	.	.	8gJ	.
2F	.	.	.	2c	-se-	2a	.
=75	=75	=75	=75	=75	=75	=75	=75
2G	-re	1r	.	2B	-re-	2d	-re
[2E	no-	.	.	4G	.	4r	.
.	.	.	.	[4B	.	[4g	no-
=76	=76	=76	=76	=76	=76	=76	=76
4E]	.	1r	.	8B]L	.	4g]	.
.	.	.	.	8cJ	.	.	.
4D	.	.	.	4d	.	4f	.
4C	.	.	.	4G	-re	4e	.
4AA	.	.	.	[4c	no-	4c	.
=77	=77	=77	=77	=77	=77	=77	=77
2GG	-bis,	1r	.	4c]	.	2d	.
.	.	.	.	4B	.	.	.
2r	.	.	.	[2c	-bis.	4c	.
.	.	.	.	.	.	4g	.
!!LO:LB:g=original
=78	=78	=78	=78	=78	=78	=78	=78
*	*edit	*	*	*	*	*	*
1C	no-	1r	.	2c]	.	4a	.
.	.	.	.	.	.	2cc	.
.	.	.	.	2e	Qui	.	.
.	.	.	.	.	.	8bL	.
.	.	.	.	.	.	8aJ	.
=79	=79	=79	=79	=79	=79	=79	=79
*	*	*lig	*	*	*	*	*
[1GG	-bis.	[1G	Qui	1d	tol-	1b	-bis.
=80	=80	=80	=80	=80	=80	=80	=80
1GG]	.	1G_	.	4d	-lis	2r	.
.	.	.	.	4e	.	.	.
.	.	.	.	4d	pec-	2b	Qui
.	.	.	.	[4g	-ca-	.	.
=81	=81	=81	=81	=81	=81	=81	=81
2r	.	1G]	.	4g]	.	2b	tol-
.	.	.	.	8fL	.	.	.
.	.	.	.	8eJ	.	.	.
*	*Xedit	*	*	*	*	*	*
2GG	Qui	.	.	2d	.	2b	-lis
=82	=82	=82	=82	=82	=82	=82	=82
1AA	tol-	[1c	.	4c	.	4a	pec-
.	.	.	.	2A	.	2cc	-ca-
.	.	.	.	8GL	.	8bL	.
.	.	.	.	8FJ	.	8aJ	.
=83	=83	=83	=83	=83	=83	=83	=83
2C	-lis	1c]	.	2E	-ta	4.g	.
*	*	*Xlig	*	*	*	*	*
.	.	.	.	.	.	8f	.
4E	pec-	.	.	2r	.	4g	.
[4F	-ca	.	.	.	.	[4a	.
=84	=84	=84	=84	=84	=84	=84	=84
*	*	*lig	*	*	*	*	*
4F]	.	1c	tol-	2r	.	4a]	.
8EL	.	.	.	.	.	8gL	.
8DJ	.	.	.	.	.	8fJ	.
2E	.	.	.	2G	mun-	2g	.
!!LO:LB:g=original
=85	=85	=85	=85	=85	=85	=85	=85
[1D	ta	[1d	.	4.A	.	1f	-ta
.	.	.	.	8B	.	.	.
.	.	.	.	4A	.	.	.
.	.	.	.	4B	.	.	.
=86	=86	=86	=86	=86	=86	=86	=86
1D]	.	1d]	.	2A	.	2.f	mun-
*	*	*Xlig	*	*	*	*	*
.	.	.	.	8AL	.	.	.
.	.	.	.	8G	.	.	.
.	.	.	.	8F	.	4g	.
.	.	.	.	8EJ	.	.	.
=87	=87	=87	=87	=87	=87	=87	=87
*	*	*lig	*	*	*	*	*
1r	.	2d	-lis	4D	.	4a	.
.	.	.	.	2G	.	4b	.
.	.	2c	.	.	.	2a	.
.	.	.	.	4F	.	.	.
=88	=88	=88	=88	=88	=88	=88	=88
1GG	mun-	1B	.	1G	.	2b	.
*	*	*Xlig	*	*	*	*	*
.	.	.	.	.	.	[2g	.
=89	=89	=89	=89	=89	=89	=89	=89
*	*	*	*edit	*	*	*	*
2C	.	1A	pec-	2E	.	4g]	.
.	.	.	.	.	.	8fL	.
.	.	.	.	.	.	8eJ	.
2D	.	.	.	2D	-di,	2f	-di,
=90	=90	=90	=90	=90	=90	=90	=90
*	*	*lig	*	*	*	*	*
2GG	-di,	[1B	-ca-	4r	.	2r	.
*	*	*	*	*	*edit	*	*
.	.	.	.	2D	sus-	.	.
2r	.	.	.	.	.	2d	sus-
.	.	.	.	[4G	.	.	.
=91	=91	=91	=91	=91	=91	=91	=91
2BB	sus-	1B]	.	4G]	.	2d	-ci-
.	.	.	.	8FL	.	.	.
.	.	.	.	8EJ	.	.	.
2BB	-ci-	.	.	2D	-ci-	2d	-pe
!!LO:PB:g=original
=92	=92	=92	=92	=92	=92	=92	=92
1C	-pe	[1G	.	2C	-pe	1e	de-
.	.	.	.	4r	.	.	.
*	*	*	*	*	*Xedit	*	*
.	.	.	.	[4c	de-	.	.
=93	=93	=93	=93	=93	=93	=93	=93
2C	de-	1G_	.	4c]	.	2e	-pre-
.	.	.	.	8BL	.	.	.
.	.	.	.	8AJ	.	.	.
2GG	-pre-	.	.	2B	-pre	2d	.
=94	=94	=94	=94	=94	=94	=94	=94
2C	-ca-	1G]	.	4.G	ca-	2e	-ca-
.	.	.	.	8A	-ti-	.	.
*	*	*Xlig	*	*	*	*	*
2BB	-ti-	.	.	2B	-o-	2d	-ti-
=95	=95	=95	=95	=95	=95	=95	=95
*	*	*lig	*	*	*	*	*
2.AA	-o-	1A	-ta	1E	-nem	2.c	-o-
4BB	.	.	.	.	.	4d	.
=96	=96	=96	=96	=96	=96	=96	=96
1C	.	[1G	.	2r	.	2e	.
*	*	*	*	*	*edit	*	*
.	.	.	.	4.E	no-	2e	.
.	.	.	.	8F	.	.	.
=97	=97	=97	=97	=97	=97	=97	=97
1GG	-nem	1G]	.	4G	.	[1d	-nem
*	*	*Xlig	*	*	*	*	*
.	.	.	.	4A	.	.	.
.	.	.	.	2B	.	.	.
=98	=98	=98	=98	=98	=98	=98	=98
*	*	*lig	*	*	*	*	*
1r	.	2F	mun-	2A	.	2d]	.
.	.	2G	.	2B	.	[2e	no-
*	*	*Xlig	*	*	*	*	*
!!LO:LB:g=original
=99	=99	=99	=99	=99	=99	=99	=99
1C	no-	1E	.	1G	-stram,	4e]	.
.	.	.	.	.	.	4d	.
.	.	.	.	.	.	2c	.
=100	=100	=100	=100	=100	=100	=100	=100
1GG	-stram.	[1D	-di,	2r	.	1B	.
*	*	*	*	*	*Xedit	*	*
.	.	.	.	[2G	no-	.	.
=101	=101	=101	=101	=101	=101	=101	=101
1r	.	1D]	.	4G]	.	1A	-stram.
.	.	.	.	8FL	.	.	.
.	.	.	.	8EJ	.	.	.
.	.	.	.	4F	.	.	.
.	.	.	.	4G	.	.	.
=102	=102	=102	=102	=102	=102	=102	=102
1D	Qui	1r	.	1A	-stram.	2r	.
.	.	.	.	.	.	2f	Qui
=103	=103	=103	=103	=103	=103	=103	=103
2D	se-	1r	.	2d	Qui	2f	se-
2D	-des	.	.	2d	se-	2f	-des
=104	=104	=104	=104	=104	=104	=104	=104
2E	ad	1r	.	2c	-des	2.g	ad
[2G	dex-	.	.	2B	ad	.	.
.	.	.	.	.	.	8fL	.
.	.	.	.	.	.	8eJ	.
=105	=105	=105	=105	=105	=105	=105	=105
4G]	.	1r	.	2.d	dex-	4d	dex-
4G	-te-	.	.	.	.	4e	.
[2D	-ram	.	.	.	.	4f	.
.	.	.	.	4d	-te-	4g	.
!!LO:LB:g=original
=106	=106	=106	=106	=106	=106	=106	=106
4D]	.	1r	.	2.A	-ram	2.a	-te-
4E	.	.	.	.	.	.	.
4F	.	.	.	.	.	.	.
4G	.	.	.	4B	.	8gL	.
.	.	.	.	.	.	8fJ	.
=107	=107	=107	=107	=107	=107	=107	=107
2A	Pa-	1r	.	2c	Pa-	2e	-ram
[2G	.	.	.	4d	.	2r	.
.	.	.	.	[4e	.	.	.
=108	=108	=108	=108	=108	=108	=108	=108
2G]	.	1r	.	8e]L	.	2g	Pa-
.	.	.	.	8d	.	.	.
.	.	.	.	8c	.	.	.
.	.	.	.	8BJ	.	.	.
2F	.	.	.	4A	.	2a	.
.	.	.	.	[4d	.	.	.
=109	=109	=109	=109	=109	=109	=109	=109
1E	.	1r	.	4d]	.	4b	.
.	.	.	.	4c	.	4.cc	.
.	.	.	.	4.c	.	.	.
.	.	.	.	.	.	8bL	.
.	.	.	.	.	.	8a	.
.	.	.	.	8B	.	8gJ	.
=110	=110	=110	=110	=110	=110	=110	=110
*	*	*lig	*	*	*	*	*
1D	.	[1A	mi-	1d	-tris,	4.f	.
.	.	.	.	.	.	8e	.
.	.	.	.	.	.	2f	.
=111	=111	=111	=111	=111	=111	=111	=111
1AA	-tris.	1A]	.	1c#i	.	1e	-tris,
!!LO:LB:g=original
=112	=112	=112	=112	=112	=112	=112	=112
*	*	*	*	*	*edit	*	*
1r	.	[1d	.	4.D	mi-	4.f	mi-
.	.	.	.	8E	.	8g	.
.	.	.	.	4F	.	4a	.
.	.	.	.	4G	.	[4b	-se-
=113	=113	=113	=113	=113	=113	=113	=113
1r	.	1d]	.	4.D	-se-	4b]	.
*	*	*Xlig	*	*	*	*	*
.	.	.	.	.	.	2a	-re-
.	.	.	.	8E	.	.	.
.	.	.	.	4F	.	.	.
.	.	.	.	4G	.	4b	.
=114	=114	=114	=114	=114	=114	=114	=114
*	*	*lig	*	*	*	*	*
1r	.	2c	-se-	4.C	-re-	4cc	.
.	.	.	.	.	.	2a	.
.	.	.	.	8D	.	.	.
.	.	2B	.	8EL	.	.	.
*	*	*Xlig	*	*	*	*	*
.	.	.	.	8FJ	.	.	.
.	.	.	.	4G	.	4g	.
=115	=115	=115	=115	=115	=115	=115	=115
1r	.	2A	.	4A	-re	2cc	-re
.	.	.	.	4F	.	.	.
.	.	[2d	-re-	[2G	no-	[2b	no-
=116	=116	=116	=116	=116	=116	=116	=116
2r	.	2d]	.	2G]	.	4b]	.
.	.	.	.	.	.	4a	.
2AA	Quo-	2c	-re	2A	.	[2a	.
=117	=117	=117	=117	=117	=117	=117	=117
*	*	*lig	*	*	*	*	*
1E	-ni-	1B	no-	2E	-bis.	2a]	.
*	*	*	*	*	*Xedit	*	*
.	.	.	.	2e	Quo-	2g#i	.
!!LO:PB:g=original
=118	=118	=118	=118	=118	=118	=118	=118
1F	-am	[1A	.	2.c	-ni-	1a	-bis.
.	.	.	.	8dL	.	.	.
.	.	.	.	8eJ	.	.	.
=119	=119	=119	=119	=119	=119	=119	=119
2D	tu	1A]	.	2.f	-am	2r	.
*	*	*Xlig	*	*	*	*	*
2D	so-	.	.	.	.	4.a	Quo-
.	.	.	.	8eL	.	.	.
.	.	.	.	8dJ	.	8b	.
=120	=120	=120	=120	=120	=120	=120	=120
2AA	-lus	[1A	-bis...	4.c	tu	2cc	-ni-
.	.	.	.	8d	.	.	.
4D	san-	.	.	4f	so-	4b	.
4C	.	.	.	[4e	.	[4a	-am
=121	=121	=121	=121	=121	=121	=121	=121
2D	.	1A_	.	4e]	.	4a]	.
.	.	.	.	2d	-lus	8gL	.
.	.	.	.	.	.	8fJ	.
2AA	.	.	.	.	.	4e	.
.	.	.	.	4c	.	[4a	tu
=122	=122	=122	=122	=122	=122	=122	=122
*	*	*	*	*	*edit	*	*
2C	.	1A]	.	2e	san-	4a]	.
.	.	.	.	.	.	2g	so-
2D	.	.	.	2d	.	.	.
.	.	.	.	.	.	4f#i	.
=123	=123	=123	=123	=123	=123	=123	=123
*	*	*lig	*	*	*	*	*
1E	-ctus,	[1G	Tu	2.B	-ctus,	2g	-lus
.	.	.	.	.	.	2r	.
.	.	.	.	4c	.	.	.
!!LO:LB:g=original
=124	=124	=124	=124	=124	=124	=124	=124
1r	.	1G]	.	2d	.	2b	san-
.	.	.	.	2r	.	8bL	.
.	.	.	.	.	.	8a	.
.	.	.	.	.	.	8g	.
.	.	.	.	.	.	8fJ	.
=125	=125	=125	=125	=125	=125	=125	=125
*	*edit	*	*	*	*Xedit	*	*
2C	san-	[1c	so-	2G	san-	2e	.
4.C	.	.	.	4G	.	4.e	.
.	.	.	.	4A	.	.	.
8D	.	.	.	.	.	8f	.
=126	=126	=126	=126	=126	=126	=126	=126
4E	.	1c_	.	4G	.	4g	.
4F	.	.	.	4.c	.	4a	.
2C	.	.	.	.	.	4g	.
.	.	.	.	8d	.	.	.
.	.	.	.	4e	.	[4cc	.
=127	=127	=127	=127	=127	=127	=127	=127
*lig	*	*	*	*	*	*	*
2F	.	1c]	.	2A	-ctus.	8cc]L	.
.	.	.	.	.	.	8b	.
.	.	.	.	.	.	8a	.
.	.	.	.	.	.	8gJ	.
2A	.	.	.	4r	.	4.f#i	.
*Xlig	*	*	*	*	*	*	*
.	.	.	.	4A	Tu	.	.
.	.	.	.	.	.	8e	.
=128	=128	=128	=128	=128	=128	=128	=128
2.G	-ctus.	[1d	-lus	2B	so-	1g	-ctus.
.	.	.	.	4G	.	.	.
8FL	.	.	.	[4d	.	.	.
8EJ	.	.	.	.	.	.	.
=129	=129	=129	=129	=129	=129	=129	=129
4D	.	1d_	.	4d]	.	2r	.
*	*Xedit	*	*	*	*	*	*
2G	Tu	.	.	4B	.	.	.
.	.	.	.	2A	-lus	2a	Tu
4F	.	.	.	.	.	.	.
!!LO:LB:g=original
=130	=130	=130	=130	=130	=130	=130	=130
2G	so-	1d]	.	4r	.	2b	so-
*	*	*Xlig	*	*	*	*	*
.	.	.	.	4g	Do-	.	.
2D	-lus	.	.	4f	.	2a	-lus
.	.	.	.	4d	.	.	.
=131	=131	=131	=131	=131	=131	=131	=131
*	*	*lig	*	*	*	*	*edit
2.AA	Do-	[1c	san-	2e	.	2.cc	Do-
.	.	.	.	[2e	-mi-	.	.
4BB	.	.	.	.	.	8bL	.
.	.	.	.	.	.	8aJ	.
=132	=132	=132	=132	=132	=132	=132	=132
2C	-mi-	1c]	.	2e]	.	2g	-mi-
2AA	.	.	.	2e	-nus,	2a	-nus,
=133	=133	=133	=133	=133	=133	=133	=133
1E	-nus.	1B	-ctus...	2r	.	4r	.
*	*	*Xlig	*	*	*	*	*Xedit
.	.	.	.	.	.	2g	Do-
*	*	*	*	*	*edit	*	*
.	.	.	.	2e	Do-	.	.
.	.	.	.	.	.	4e	.
=134	=134	=134	=134	=134	=134	=134	=134
*	*	*lig	*	*	*	*	*
1r	.	[1A	Do-	4.c	.	4f	.
.	.	.	.	.	.	4.a	.
.	.	.	.	8d	.	.	.
.	.	.	.	8eL	.	.	.
.	.	.	.	8fJ	.	8g	.
.	.	.	.	4d	.	4f	.
=135	=135	=135	=135	=135	=135	=135	=135
1r	.	1A_	.	4c	.	4e	.
.	.	.	.	2d	.	4d	.
.	.	.	.	.	.	2e	.
.	.	.	.	4c	.	.	.
!!LO:LB:g=original
=136	=136	=136	=136	=136	=136	=136	=136
1D	Tu	1A]	.	4.d	-mi-	2.f	-mi-
.	.	.	.	8c	.	.	.
.	.	.	.	2A	-nus.	.	.
.	.	.	.	.	.	4d	.
=137	=137	=137	=137	=137	=137	=137	=137
1G	so-	1B	-mi-	2r	.	2d	-nus.
*	*	*	*	*	*Xedit	*	*
.	.	.	.	2g	Tu	4r	.
.	.	.	.	.	.	[4dd	Tu
=138	=138	=138	=138	=138	=138	=138	=138
2G	-lus	1G	-nus.	2g	so-	8dd]L	.
*	*	*Xlig	*	*	*	*	*
.	.	.	.	.	.	8ccJ	.
.	.	.	.	.	.	2b	so-
2G	Al-	.	.	2d	-lus	.	.
.	.	.	.	.	.	8aL	.
.	.	.	.	.	.	8gJ	.
=139	=139	=139	=139	=139	=139	=139	=139
2.D	-tis-	1r	.	2.f	Al-	2a	-lus
.	.	.	.	.	.	2a	Al-
4C	-si-	.	.	4e	.	.	.
=140	=140	=140	=140	=140	=140	=140	=140
2BB	-mus,	1r	.	4d	-tis-	2.dd	-tis-
.	.	.	.	2g	.	.	.
2AA	Je-	.	.	.	.	.	.
.	.	.	.	4f	-si-	4cc	-si-
=141	=141	=141	=141	=141	=141	=141	=141
4GG	-su	1r	.	2g	-mus,	2b	-mus,
2G	Chri-	.	.	.	.	.	.
.	.	.	.	4r	.	2a	Je-
4F	.	.	.	4c	Je	.	.
!!LO:PB:g=original
=142	=142	=142	=142	=142	=142	=142	=142
4G	.	1r	.	4B	.	4d	-su
*	*	*	*	*	*	*	*edit
4E	.	.	.	4G	.	2g	Chri-
2D	-ste,	.	.	2A	su	.	.
.	.	.	.	.	.	4f#i	.
=143	=143	=143	=143	=143	=143	=143	=143
*	*edit	*lig	*Xedit	*	*	*	*
2.E	Chri-	[1G	Chri-	4r	.	[1g	-ste,
.	.	.	.	4.G	Chri-	.	.
.	.	.	.	8AL	.	.	.
8DL	.	.	.	8B	.	.	.
8CJ	.	.	.	8cJ	.	.	.
=144	=144	=144	=144	=144	=144	=144	=144
4BB	.	1G_	.	4d	.	1g]	.
4C	.	.	.	4e	.	.	.
4BB	.	.	.	4d	.	.	.
4GG	.	.	.	[4g	.	.	.
=145	=145	=145	=145	=145	=145	=145	=145
2C	-ste.	1G]	.	4g]	.	2r	.
.	.	.	.	4e	.	.	.
*	*	*	*	*	*	*	*Xedit
2r	.	.	.	2d	.	2b	Chri-
=146	=146	=146	=146	=146	=146	=146	=146
1r	.	[1A	-ste.	2c	.	2.cc	.
.	.	.	.	[2e	.	.	.
.	.	.	.	.	.	4b	.
=147	=147	=147	=147	=147	=147	=147	=147
1r	.	1A]	.	2e]	.	2.a	.
*	*	*Xlig	*	*	*	*	*
.	.	.	.	2f	.	.	.
.	.	.	.	.	.	8gL	.
.	.	.	.	.	.	8fJ	.
!!LO:LB:g=original
=148	=148	=148	=148	=148	=148	=148	=148
*M3/2	*	*M3/2	*	*M3/2	*	*M3/2	*
*met(3)	*	*met(3)	*	*met(3)	*	*met(3)	*
*	*Xedit	*	*edit	*	*	*	*
!!LO:TX:a:t=3
!!LO:TX:a:t=[whole] = [whole-dot]
1C	Cum	1G	Cum	1g	-ste.	1e	-ste.
2C	San-	2G	San-	2c	Cum	2e	Cum
=149	=149	=149	=149	=149	=149	=149	=149
*col	*	*col	*	*	*	*col	*
*lig	*	*lig	*	*col	*	*	*
1E	-cto	1G	-cto	2.B	San-	1g	San-
.	.	.	.	4c	.	.	.
*	*	*	*	*lig	*	*	*
[2D	.	[2F	.	[2d	-cto	[2a	-cto
=150	=150	=150	=150	=150	=150	=150	=150
2D]	.	2F]	.	2d]	.	4a]	.
.	.	.	.	.	.	4b	.
1AA	.	1E	.	1e	.	1cc	.
*Xcol	*	*Xlig	*	*Xcol	*	*	*
*Xlig	*	*	*	*Xlig	*	*	*
*	*	*	*	*	*	*Xcol	*
=151	=151	=151	=151	=151	=151	=151	=151
1.r	.	[1.D	Spi-	2g	Spi-	2b	Spi-
.	.	.	.	1f	.	1a	.
=152	=152	=152	=152	=152	=152	=152	=152
1.r	.	2D]	.	2d	.	1dd	.
*	*	*Xcol	*	*	*	*	*
.	.	1A	-ri-	1e	-ri-	.	.
.	.	.	.	.	.	2cc	-ri-
=153	=153	=153	=153	=153	=153	=153	=153
1GG	Spi-	1B	-tu,	1d	-tu,	1dd	-tu,
*	*	*	*Xedit	*	*	*	*
2F	-ri-	2A	in	2r	.	2cc	.
!!LO:LB:g=original
=154	=154	=154	=154	=154	=154	=154	=154
*lig	*	*	*	*	*	*lig	*
2G	-tu,	1G	glo-	1d	in	2b	in
1D	.	.	.	.	.	1a	.
*Xlig	*	*	*	*	*	*Xlig	*
.	.	2F#i	-ri-	2A	.	.	.
=155	=155	=155	=155	=155	=155	=155	=155
1.r	.	1G	-a	1B	glo-	1d	glo-
.	.	2r	.	2A	-ri-	2f	-ri-
=156	=156	=156	=156	=156	=156	=156	=156
1GG	in	[1.d	De-	1G	-a	2g	.
.	.	.	.	.	.	1a	-a
2D	glo-	.	.	2F	.	.	.
=157	=157	=157	=157	=157	=157	=157	=157
*lig	*	*	*	*	*	*	*
2BB	-ri-	1.d]	.	2.G	De-	1b	De-
2GG	.	.	.	.	.	.	.
*Xlig	*	*	*	*	*	*	*
.	.	.	.	4D	.	.	.
2D	-a	.	.	2F	.	2a	.
=158	=158	=158	=158	=158	=158	=158	=158
1.r	.	2B	-i	2G	-i	1g	-i
*	*	*	*	*	*edit	*	*
.	.	1A	Pa-	1D	Pa-	.	.
.	.	.	.	.	.	2f#j	.
=159	=159	=159	=159	=159	=159	=159	=159
*	*	*lig	*	*	*	*lig	*
1GG	De-	2G	.	1d	-tris,	2g	Pa-
.	.	2D	.	.	.	2dd	.
*	*	*Xlig	*	*	*	*Xlig	*
2C	-i	2E	.	2r	.	2cc	.
!!LO:LB:g=original
=160	=160	=160	=160	=160	=160	=160	=160
*	*	*	*	*	*Xedit	*	*
*lig	*	*lig	*	*	*	*	*
2D	Pa-	2F	.	2d	Pa-	2a	-tris.
2.E	.	2.G	.	2B	.	2.g	.
*Xlig	*	*Xlig	*	*	*	*	*
.	.	.	.	2G	-tris.	.	.
4F	.	4A	.	.	.	4e	.
=161	=161	=161	=161	=161	=161	=161	=161
*col	*	*	*	*	*	*lig	*
2G	-tris.	4B	-tris.	2r	.	2d	A-
.	.	4c	.	.	.	.	.
2D	.	2d	A-	2F	A-	2.a	.
*lig	*	*	*	*	*	*Xlig	*
[2E	A-	2B	.	4G	.	.	.
.	.	.	.	4A	.	4g	.
=162	=162	=162	=162	=162	=162	=162	=162
1E]	.	2G	.	4B	.	1g	.
.	.	.	.	4c	.	.	.
.	.	1A	.	1d	.	.	.
2D	.	.	.	.	.	2f#i	.
*Xlig	*	*	*	*	*	*	*
*Xcol	*	*	*	*	*	*	*
=163	=163	=163	=163	=163	=163	=163	=163
2.E	.	[1.Gl	-men.	2.B	.	[1.gl	-men.
4D	.	.	.	4c	.	.	.
2BB	.	.	.	2d	.	.	.
=164	=164	=164	=164	=164	=164	=164	=164
1C	.	1.G_	.	1e	.	1.g_	.
2BB	.	.	.	2d	.	.	.
=165	=165	=165	=165	=165	=165	=165	=165
1.GGl	-men.	1.G]	.	1.Bl	-men.	1.g]	.
==	==	==	==	==	==	==	==
*-	*-	*-	*-	*-	*-	*-	*-
!!!system-decoration: [*]
!!!RDF**kern: j = editorial accidental, optional, paren up
!!!RDF**kern: i = editorial accidental
!!!RDF**kern: l = terminal breve
!!!PTL: Gaspar van Weerbeke: Collected Works. I. Masses, Part 1
!!!PPR: American Institute of Musicology
!!!PC#: Corpus Mensurabilis Musicae 106/I.1
!!!PDT: 2016
!!!PED: Pavanello, Agnese
!!!YEC: Copyright 2014, Pavanello, Agnese
!!!YEM: CC-BY-NC 4.0 (https://creativecommons.org/licenses/by-nc/4.0/legalcode)
!!!EED: Mair-Gruber, Roland
!!!EEV: 2021/11/01
!!!title: @{OPR} &mdash; @{OTL}
